img/icons/footer-vk.svg

<svg width="20" height="20" viewBox="0 0 20 20" fill="none" xmlns="http://www.w3.org/2000/svg">
<path d="M10.0004 0.399902C4.69839 0.399902 0.400391 4.6979 0.400391 9.9999C0.400391 15.3019 4.69839 19.5999 10.0004 19.5999C15.3024 19.5999 19.6004 15.3019 19.6004 9.9999C19.6004 4.6979 15.3024 0.399902 10.0004 0.399902ZM13.6924 11.2309C13.6924 11.2309 14.5414 12.0689 14.7504 12.4579C14.7564 12.4659 14.7594 12.4739 14.7614 12.4779C14.8464 12.6209 14.8664 12.7319 14.8244 12.8149C14.7544 12.9529 14.5144 13.0209 14.4324 13.0269H12.9324C12.8284 13.0269 12.6104 12.9999 12.3464 12.8179C12.1434 12.6759 11.9434 12.4429 11.7484 12.2159C11.4574 11.8779 11.2054 11.5859 10.9514 11.5859C10.9191 11.5858 10.8871 11.5909 10.8564 11.6009C10.6644 11.6629 10.4184 11.9369 10.4184 12.6669C10.4184 12.8949 10.2384 13.0259 10.1114 13.0259H9.42439C9.19039 13.0259 7.97139 12.9439 6.89139 11.8049C5.56939 10.4099 4.37939 7.6119 4.36939 7.5859C4.29439 7.4049 4.44939 7.3079 4.61839 7.3079H6.13339C6.33539 7.3079 6.40139 7.4309 6.44739 7.5399C6.50139 7.6669 6.69939 8.1719 7.02439 8.7399C7.55139 9.6659 7.87439 10.0419 8.13339 10.0419C8.18195 10.0413 8.22965 10.029 8.27239 10.0059C8.61039 9.8179 8.54739 8.6129 8.53239 8.3629C8.53239 8.3159 8.53139 7.8239 8.35839 7.5879C8.23439 7.4169 8.02339 7.3519 7.89539 7.3279C7.9472 7.25641 8.01545 7.19845 8.09439 7.1589C8.32639 7.0429 8.74439 7.0259 9.15939 7.0259H9.39039C9.84039 7.0319 9.95639 7.0609 10.1194 7.1019C10.4494 7.1809 10.4564 7.3939 10.4274 8.1229C10.4184 8.3299 10.4094 8.5639 10.4094 8.8399C10.4094 8.8999 10.4064 8.9639 10.4064 9.0319C10.3964 9.4029 10.3844 9.8239 10.6464 9.9969C10.6806 10.0183 10.7201 10.0298 10.7604 10.0299C10.8514 10.0299 11.1254 10.0299 11.8674 8.7569C12.0962 8.34716 12.2951 7.92138 12.4624 7.4829C12.4774 7.4569 12.5214 7.3769 12.5734 7.3459C12.6118 7.32634 12.6543 7.31639 12.6974 7.3169H14.4784C14.6724 7.3169 14.8054 7.3459 14.8304 7.4209C14.8744 7.5399 14.8224 7.9029 14.0094 9.0039L13.6464 9.4829C12.9094 10.4489 12.9094 10.4979 13.6924 11.2309Z" fill="white"/>
</svg>

<svg width="20" height="20" fill="none" xmlns="http://www.w3.org/2000/svg"><path d="M10 .4A9.6 9.6 0 00.4 10a9.6 9.6 0 009.6 9.6 9.6 9.6 0 009.6-9.6A9.6 9.6 0 0010 .4zm3.692 10.83s.85.839 1.058 1.228c.006.008.01.016.011.02.085.143.105.254.063.337-.07.138-.31.206-.392.212h-1.5c-.104 0-.322-.027-.586-.21-.203-.141-.403-.374-.598-.601-.29-.338-.543-.63-.797-.63a.303.303 0 00-.095.015c-.192.062-.438.336-.438 1.066 0 .228-.18.359-.307.359h-.687c-.234 0-1.453-.082-2.533-1.221C5.57 10.41 4.38 7.612 4.37 7.585c-.075-.18.08-.277.25-.277h1.514c.202 0 .268.123.314.232.054.127.252.632.577 1.2.527.926.85 1.302 1.11 1.302a.3.3 0 00.138-.036c.338-.188.275-1.393.26-1.643 0-.047 0-.54-.174-.775-.124-.171-.335-.236-.463-.26a.55.55 0 01.2-.17c.231-.115.65-.132 1.064-.132h.231c.45.006.566.035.73.076.33.079.336.292.307 1.02a15.99 15.99 0 00-.018.718c0 .06-.003.124-.003.192-.01.37-.022.792.24.965a.216.216 0 00.114.033c.091 0 .365 0 1.107-1.273.23-.41.428-.836.595-1.274.015-.026.06-.106.111-.137a.27.27 0 01.124-.03h1.781c.194 0 .327.03.352.105.044.119-.008.482-.82 1.583l-.364.479c-.737.966-.737 1.015.046 1.748z" fill="#fff"/></svg>
